build/img/footer/telegram.svg

<svg id="telegram" viewBox="0 0 44 45" xmlns="http://www.w3.org/2000/svg">
<path d="M22 4.41943C11.88 4.41943 3.66669 12.6328 3.66669 22.7528C3.66669 32.8728 11.88 41.0861 22 41.0861C32.12 41.0861 40.3334 32.8728 40.3334 22.7528C40.3334 12.6328 32.12 4.41943 22 4.41943ZM30.5067 16.8861C30.2317 19.7828 29.04 26.8228 28.435 30.0678C28.1784 31.4428 27.665 31.9011 27.1884 31.9561C26.125 32.0478 25.3184 31.2594 24.2917 30.5811C22.6784 29.5178 21.7617 28.8578 20.2034 27.8311C18.3884 26.6394 19.5617 25.9794 20.6067 24.9161C20.8817 24.6411 25.575 20.3694 25.6667 19.9844C25.6794 19.9261 25.6777 19.8656 25.6618 19.8081C25.6458 19.7506 25.616 19.6978 25.575 19.6544C25.465 19.5628 25.3184 19.5994 25.19 19.6178C25.025 19.6544 22.4584 21.3594 17.4534 24.7328C16.72 25.2278 16.06 25.4844 15.4734 25.4661C14.8134 25.4478 13.5667 25.0994 12.6317 24.7878C11.4767 24.4211 10.5784 24.2194 10.6517 23.5778C10.6884 23.2478 11.1467 22.9178 12.0084 22.5694C17.3617 20.2411 20.9184 18.7011 22.6967 17.9678C27.7934 15.8411 28.8384 15.4744 29.535 15.4744C29.6817 15.4744 30.03 15.5111 30.25 15.6944C30.4334 15.8411 30.4884 16.0428 30.5067 16.1894C30.4884 16.2994 30.525 16.6294 30.5067 16.8861Z"/>
</svg>

<svg width="44" height="45" fill="none" xmlns="http://www.w3.org/2000/svg"><path d="M22 4.42c-10.12 0-18.333 8.213-18.333 18.333S11.88 41.086 22 41.086s18.333-8.213 18.333-18.333S32.12 4.419 22 4.419zm8.507 12.466c-.275 2.897-1.467 9.937-2.072 13.182-.257 1.375-.77 1.833-1.247 1.888-1.063.092-1.87-.697-2.896-1.375-1.614-1.063-2.53-1.723-4.089-2.75-1.815-1.192-.641-1.852.404-2.915.275-.275 4.968-4.547 5.06-4.932a.368.368 0 00-.092-.33c-.11-.091-.257-.055-.385-.036-.165.036-2.732 1.741-7.737 5.115-.733.495-1.393.751-1.98.733-.66-.018-1.906-.367-2.841-.678-1.155-.367-2.054-.569-1.98-1.21.036-.33.495-.66 1.356-1.009 5.354-2.328 8.91-3.868 10.689-4.601 5.096-2.127 6.141-2.494 6.838-2.494.147 0 .495.037.715.22a.728.728 0 01.257.495c-.019.11.018.44 0 .697z" fill="#FE8235"/></svg>25.2278 16.06 25.4844 15.4734 25.4661C14.8134 25.4478 13.5667 25.0994 12.6317 24.7878C11.4767 24.4211 10.5784 24.2194 10.6517 23.5778C10.6884 23.2478 11.1467 22.9178 12.0084 22.5694C17.3617 20.2411 20.9184 18.7011 22.6967 17.9678C27.7934 15.8411 28.8384 15.4744 29.535 15.4744C29.6817 15.4744 30.03 15.5111 30.25 15.6944C30.4334 15.8411 30.4884 16.0428 30.5067 16.1894C30.4884 16.2994 30.525 16.6294 30.5067 16.8861Z" fill="#FE8235"/>
</svg>
